src/img/maleta.svg

<svg width="56" height="57" viewBox="0 0 56 57" fill="none" xmlns="http://www.w3.org/2000/svg">
<path d="M41.9863 21.2363H12.25C11.7578 21.2363 11.334 21.4141 10.9785 21.7695C10.6504 22.0977 10.4863 22.5078 10.4863 23V44C10.4863 44.4922 10.6504 44.9023 10.9785 45.2305C11.334 45.5859 11.7578 45.7637 12.25 45.7637H41.9863C42.4785 45.7637 42.8887 45.5859 43.2168 45.2305C43.5723 44.9023 43.75 44.4922 43.75 44V23C43.75 22.5078 43.5723 22.0977 43.2168 21.7695C42.8887 21.4141 42.4785 21.2363 41.9863 21.2363ZM38.459 23C38.4043 23.6016 38.3086 24.2031 38.1719 24.8047C38.0352 25.4062 37.8438 25.9941 37.5977 26.5684C37.3242 27.2246 36.9824 27.8672 36.5723 28.4961C36.1621 29.0977 35.6973 29.6582 35.1777 30.1777C34.6582 30.6973 34.084 31.1621 33.4551 31.5723C32.8535 31.9824 32.2246 32.3242 31.5684 32.5977C30.9941 32.8438 30.4062 33.0352 29.8047 33.1719C29.2031 33.3086 28.6016 33.4043 28 33.459V32.6387C28 32.3926 27.9043 32.1875 27.7129 32.0234C27.5488 31.832 27.3574 31.7363 27.1387 31.7363C26.8926 31.7363 26.6738 31.832 26.4824 32.0234C26.3184 32.1875 26.2363 32.3926 26.2363 32.6387V33.459C25.6348 33.4043 25.0332 33.3086 24.4316 33.1719C23.8301 33.0352 23.2559 32.8438 22.709 32.5977C22.0254 32.3242 21.3828 31.9824 20.7812 31.5723C20.1797 31.1621 19.6055 30.6973 19.0586 30.1777C18.5391 29.6582 18.0742 29.0977 17.6641 28.4961C17.2539 27.8672 16.9121 27.2246 16.6387 26.5684C16.3926 25.9941 16.2012 25.4062 16.0645 24.8047C15.9277 24.2031 15.832 23.6016 15.7773 23H38.459ZM41.9863 44H12.25V23H14.0137C14.123 24.6406 14.5195 26.1719 15.2031 27.5938C15.8867 29.043 16.7617 30.3145 17.8281 31.4082C18.9219 32.502 20.1934 33.377 21.6426 34.0332C23.0645 34.7168 24.5957 35.1133 26.2363 35.2227V36.125C26.2363 36.3711 26.3184 36.5762 26.4824 36.7402C26.6738 36.9043 26.8926 36.9863 27.1387 36.9863C27.3574 36.9863 27.5488 36.9043 27.7129 36.7402C27.9043 36.5762 28 36.3711 28 36.125V35.2227C29.6406 35.1133 31.1719 34.7168 32.5938 34.0332C34.043 33.377 35.3145 32.502 36.4082 31.4082C37.502 30.3145 38.377 29.043 39.0332 27.5938C39.7168 26.1719 40.1133 24.6406 40.2227 23H41.9863V44ZM22.75 19.5137H20.9863V12.5C20.9863 12.0078 21.1504 11.5977 21.4785 11.2695C21.834 10.9141 22.2578 10.7363 22.75 10.7363H31.4863C31.9785 10.7363 32.3887 10.9141 32.7168 11.2695C33.0723 11.5977 33.25 12.0078 33.25 12.5V19.5137H31.4863V12.5H22.75V19.5137Z" fill="#56504C"/>
</svg>

<svg width="56" height="57" fill="none" xmlns="http://www.w3.org/2000/svg"><path d="M41.986 21.236H12.25c-.492 0-.916.178-1.271.534-.329.328-.493.738-.493 1.23v21c0 .492.164.902.492 1.23.356.356.78.534 1.272.534h29.736c.492 0 .903-.178 1.23-.534.356-.328.534-.738.534-1.23V23c0-.492-.178-.902-.533-1.23a1.605 1.605 0 00-1.23-.534zM38.46 23a13.76 13.76 0 01-.287 1.805 10.22 10.22 0 01-.574 1.763 11.934 11.934 0 01-1.026 1.928 11.67 11.67 0 01-1.394 1.682c-.52.52-1.094.984-1.723 1.394-.602.41-1.23.752-1.887 1.026a10.22 10.22 0 01-1.763.574 13.76 13.76 0 01-1.805.287v-.82a.777.777 0 00-.287-.616c-.164-.191-.356-.287-.574-.287a.903.903 0 00-.657.287.835.835 0 00-.246.616v.82a13.763 13.763 0 01-1.804-.287 9.101 9.101 0 01-1.723-.574 10.018 10.018 0 01-1.928-1.026 13.737 13.737 0 01-1.722-1.394 11.67 11.67 0 01-1.395-1.682 11.918 11.918 0 01-1.025-1.928 10.22 10.22 0 01-.575-1.763A13.744 13.744 0 0115.777 23H38.46zm3.527 21H12.25V23h1.764c.109 1.64.506 3.172 1.19 4.594a13.922 13.922 0 002.624 3.814 12.823 12.823 0 003.815 2.625 12.404 12.404 0 004.593 1.19v.902c0 .246.082.451.246.615a.98.98 0 00.657.246c.218 0 .41-.082.574-.246a.777.777 0 00.287-.615v-.902c1.64-.11 3.172-.506 4.594-1.19a12.82 12.82 0 003.814-2.625 12.82 12.82 0 002.625-3.814A12.404 12.404 0 0040.223 23h1.763v21zM22.75 19.514h-1.764V12.5c0-.492.164-.902.492-1.23.356-.356.78-.534 1.272-.534h8.736c.492 0 .903.178 1.23.534.356.328.534.738.534 1.23v7.014h-1.764V12.5H22.75v7.014z" fill="#56504C"/></svg>
